public/images/ademe/email.svg

<?xml version="1.0" encoding="UTF-8"?>
<svg id="flatten_icons" data-name="flatten icons" xmlns="http://www.w3.org/2000/svg" viewBox="0 0 112 112">
  <defs>
    <style>
      .cls-1 {
        fill: none;
      }

      .cls-1, .cls-2, .cls-3, .cls-4 {
        stroke-width: 0px;
      }

      .cls-2 {
        fill: #d3d9dc;
      }

      .cls-3 {
        fill: #e7edef;
      }

      .cls-4 {
        fill: #004241;
      }
    </style>
  </defs>
  <g id="email">
    <g id="area">
      <rect class="cls-1" width="112" height="112"/>
    </g>
    <g id="email-2" data-name="email">
      <g>
        <rect class="cls-2" x="6" y="20" width="100" height="72" rx="10.45" ry="10.45"/>
        <path class="cls-4" d="m95.55,94H16.45c-6.86,0-12.45-5.58-12.45-12.45V30.45c0-6.86,5.58-12.45,12.45-12.45h79.1c6.86,0,12.45,5.58,12.45,12.45v51.1c0,6.86-5.58,12.45-12.45,12.45ZM16.45,22c-4.66,0-8.45,3.79-8.45,8.45v51.1c0,4.66,3.79,8.45,8.45,8.45h79.1c4.66,0,8.45-3.79,8.45-8.45V30.45c0-4.66-3.79-8.45-8.45-8.45H16.45Z"/>
      </g>
      <path class="cls-4" d="m11.46,91.7c-.51,0-1.02-.2-1.41-.59-.78-.78-.78-2.05,0-2.83l28.98-28.98c.78-.78,2.05-.78,2.83,0,.78.78.78,2.05,0,2.83l-28.98,28.98c-.39.39-.9.59-1.41.59Z"/>
      <path class="cls-4" d="m99.83,91.7c-.51,0-1.02-.2-1.41-.59l-29.46-29.46c-.78-.78-.78-2.05,0-2.83.78-.78,2.05-.78,2.83,0l29.46,29.46c.78.78.78,2.05,0,2.83-.39.39-.9.59-1.41.59Z"/>
      <g>
        <path class="cls-3" d="m104.91,25.82c-1.71-3.44-5.25-5.82-9.36-5.82H16.45c-4.27,0-7.94,2.57-9.56,6.24l.61.53,38.04,38.04c5.6,5.6,14.68,5.6,20.28,0l38.46-38.46.65-.54Z"/>
        <path class="cls-4" d="m55.67,71.01c-4.18,0-8.37-1.59-11.55-4.78L6.12,28.24l-.56-.49c-.65-.58-.86-1.51-.51-2.3,1.99-4.52,6.46-7.44,11.39-7.44h79.1c4.76,0,9.03,2.65,11.15,6.93.41.83.2,1.83-.51,2.42l-.58.48-38.39,38.39c-3.18,3.19-7.37,4.78-11.55,4.78ZM9.38,25.83l37.57,37.57c4.81,4.81,12.64,4.81,17.45,0l37.96-37.96c-1.58-2.15-4.07-3.44-6.8-3.44H16.45c-2.88,0-5.53,1.47-7.07,3.83Z"/>
      </g>
    </g>
  </g>
</svg>

<svg xmlns="http://www.w3.org/2000/svg" id="flatten_icons" data-name="flatten icons" viewBox="0 0 112 112"><defs><style>.cls-4{stroke-width:0;fill:#004241}</style></defs><g id="email"><path id="area" d="M0 0h112v112H0z" style="fill:none;stroke-width:0"/><g id="email-2" data-name="email"><rect width="100" height="72" x="6" y="20" rx="10.45" ry="10.45" style="stroke-width:0;fill:#d3d9dc"/><path d="M95.55 94h-79.1C9.59 94 4 88.42 4 81.55v-51.1C4 23.59 9.58 18 16.45 18h79.1c6.86 0 12.45 5.58 12.45 12.45v51.1C108 88.41 102.42 94 95.55 94m-79.1-72C11.79 22 8 25.79 8 30.45v51.1C8 86.21 11.79 90 16.45 90h79.1c4.66 0 8.45-3.79 8.45-8.45v-51.1c0-4.66-3.79-8.45-8.45-8.45z" class="cls-4"/><path d="M11.46 91.7a2.004 2.004 0 0 1-1.41-3.42L39.03 59.3c.78-.78 2.05-.78 2.83 0s.78 2.05 0 2.83L12.88 91.11c-.39.39-.9.59-1.41.59Zm88.37 0c-.51 0-1.02-.2-1.41-.59L68.96 61.65c-.78-.78-.78-2.05 0-2.83s2.05-.78 2.83 0l29.46 29.46a2.004 2.004 0 0 1-1.41 3.42Z" class="cls-4"/><path d="M104.91 25.82C103.2 22.38 99.66 20 95.55 20h-79.1c-4.27 0-7.94 2.57-9.56 6.24l.61.53 38.04 38.04c5.6 5.6 14.68 5.6 20.28 0l38.46-38.46.65-.54Z" style="stroke-width:0;fill:#e7edef"/><path d="M55.67 71.01c-4.18 0-8.37-1.59-11.55-4.78l-38-37.99-.56-.49c-.65-.58-.86-1.51-.51-2.3 1.99-4.52 6.46-7.44 11.39-7.44h79.1c4.76 0 9.03 2.65 11.15 6.93.41.83.2 1.83-.51 2.42l-.58.48-38.39 38.39c-3.18 3.19-7.37 4.78-11.55 4.78ZM9.38 25.83 46.95 63.4c4.81 4.81 12.64 4.81 17.45 0l37.96-37.96a8.4 8.4 0 0 0-6.8-3.44H16.45c-2.88 0-5.53 1.47-7.07 3.83" class="cls-4"/></g></g></svg>
